X:1
T:Estudio de Cramer
T:Estudio de Cramer
T:Arreglado sobre "Exercice 33" de Johann Baptist Cramer
T:Francisco Tárrega (1852 - 1909)
C:Francisco Tárrega
%%score ( 1 2 )
L:1/8
Q:1/4=80
M:3/4
K:D
V:1 treble-8 nm="Classical Guitar" snm="Guit."
V:2 treble-8 
V:1
"^Allegretto""^II" (6:4:6(a/f/)d/A/F/A/ (6:4:6(D/F/)A/d/(f/a/)"^III" (6:4:6(b/g/)d/B/d/b/ | %1
"^II" (6:4:6(a/f/)d/A/F/A/ (6:4:6(D/F/)A/d/(f/a/) (6:4:6(g/e/)c/A/c/e/ | %2
"^II" (6:4:6f/d/A/F/D/F/ (6:4:6(A,/D/)F/A/d/f/ e2 | %3
"^II" (6:4:6d/(a/f/)d/f/d/ (6:4:6A/d/A/F/A/F/ (6:4:6D/F/D/A,/F,/D,/ | %4
 (6:4:6(g/e/)"^II"c/A/E/C/ (6:4:6(A,/C/)E/A/c/g/ (6:4:6=f/(d/B/)^G/B/f/ | %5
"^II" (6:4:6(e/c/)A/E/C/E/ (6:4:6(A,/C/)E/A/c/g/ (6:4:6=f/(d/B/)^G/B/f/ | %6
"^II" (6:4:6(e/c/)A/E/C/E/ (6:4:6(A,/C/)E/A/c/e/ (6:4:6(d/B/)^G/E/G/d/ | %7
 (6:4:6c/(a/e/)c/e/c/ (6:4:6A/c/A/E/A/E/ (6:4:6C/E/C/A,/E,/A,/ | %8
"^II" (6:4:6(a/f/)d/A/F/A/ (6:4:6(D/F/)A/d/(f/a/)"^III" (6:4:6(b/g/)d/B/d/b/ | %9
"^II" (6:4:6(a/f/)d/A/F/A/ (6:4:6(D/F/)A/d/(f/a/) (6:4:6(g/e/)c/A/c/e/ | %10
"^II" (6:4:6f/d/A/F/D/F/ (6:4:6(A,/D/)F/A/d/f/ e2 | %11
"^II" (6:4:6d/(a/f/)d/f/d/ (6:4:6A/d/A/F/A/F/ D2 :| %12
"^VII" (6:4:6(d'/b/)f/d/f/d/ (6:4:6B/d/f/b/!-(!d'/!-)!f'/"^IX" (6:4:6(e'/c'/)^a/e/a/c'/ | %13
"^VII" (6:4:6(d'/b/)f/d/f/d/ (6:4:6B/d/F/B/d/f/"^IV" (6:4:6^g/C/^G/B/^e/g/ | %14
"^II" (6:4:6(a/f/)c/A/F/A/ (6:4:6C/F/A/c/(f/a/)"^IV" (6:4:6^e/^G/B/e/(^g/b/) | %15
"^II" (6:4:6(f/a/)f/c/f/c/ (6:4:6A/c/A/F/A/F/ F,2 | %16
"^II" (6:4:6(a/f/)^d/A/F/^D/ (6:4:6(B,/D/)F/A/d/f/"^IV" (6:4:6D/F/B/d/!-(!f/!-)!a/ | %17
"^VII" (6:4:6g/b/g/e/g/e/ G2 B2 | %18
 (6:4:6(g/e/)"^II"c/A/E/C/ (6:4:6(A,/C/)E/A/c/e/ (6:4:6C/E/A/(c/e/)g/ | %19
 (6:4:6(f/a/)f/d/A/d/ (6:4:6F/(D,/F,/)A,/(D/F/) (6:4:6A/(D/F/)"^II"A/d/f/ | %20
"^III" (6:4:6(b/g/)d/B/G/B/ (6:4:6A,/A/c/e/g/b/ (6:4:6a/D/"^II"A/d/f/a/ | %21
 (6:4:6(g/e/)"^II"c/A/E/C/ (6:4:6^A,/E/G/c/(e/g/)"^II" (6:4:6f/B,/F/B/d/f/ | %22
 (6:4:6e/B/G/E/B,/E/ (6:4:6(A,/D/)F/"^II"A/d/f/ e2 | d2 (6:4:6d/F/A/d/f/a/"^VII" [dfd']2 |] %24
V:2
 D,4 D2 | D,4 A,2 | D,4 (6:4:6(A,/C/)E/G/c/e/ | D,4 z2 | A,2 z2 A,2 | A,2 z2 A,2 | A,2 z2 A,2 | %7
 A,4 z2 | D,4 D2 | D,4 A,2 | D,4 (6:4:6(A,/C/)E/G/c/e/ | D,4 D2 :| B,2 B2 F2 | B,6 | F,4 C2 | %15
 F,4 F,2 | B,2 B,2 ^D2 | E2 (6:4:6G/(E,/G,/)B,/E/G/ (6:4:6B/(E/G/)B/(e/g/) | A,2 z2 C2 | %19
 D,2 z2 z2 | z2 A,2 z2 | A,2 ^A,2 z2 | z2 z2 (6:4:6(A,/C/)E/G/c/e/ | %23
 (6:4:6(D,/F,/)A,/(D/F/)"^II"A/ z2 D2 |] %24

